X: 24406
T: Lovely Nancy
R: jig
M: 6/8
K: Gmajor
|:B|dBd gfg|e2 g dBG|BGG dGG|FAA A2 B|
dB/c/d gdg|ee/f/g dBG|c2 e dBG|FDF G2:|
|:A|B2 G dGG|eGG dBG|B^AB dGG|F2 A AA/B/c|
B2 G dGG|eGe dBG|B^AB dBG|F^EF G2:|

